!!!COM: Vivaldi, Antonio Lucio
!!!CDT: 1678/03/04-1741/08/28
!!!OPR: 12 sonatas for two violins and basso continuo
!!!OTL: Sonata in E major, op. @{OPS}, no. @{ONM} (@{SCT})
!!!OPS: 1
!!!ONM: 4
!!!OMV: 2. [Allegro &mdash; Adagio]
!!!SCT: RV 66
!!!SCA: Antonio Vivaldi: Thematisch-systematisches Verzeichnis seiner Werke (Ryom-Verzeichnis)
!!!OMD: Allegro
!!!key: E
**kern	**dynam	**fb	**kern	**dynam	**kern	**dynam
*part3	*	*	*part2	*	*part1	*
*staff3	*	*	*staff2	*	*staff1	*
*ICstr&ICklav	*	*	*ICstr	*	*ICstr	*
*Icello&Icemba	*	*	*Ivioln	*	*Ivioln	*
*	*	*	*I#2	*	*I#1	*
*I"Violoncello\nContinuo	*	*	*I"Violin 2	*	*I"Violin 1	*
*I'bc	*	*	*I'v2	*	*I'v1	*
*>[A,B]	*>[A,B]	*>[A,B]	*>[A,B]	*>[A,B]	*>[A,B]	*>[A,B]
*>A	*>A	*>A	*>A	*>A	*>A	*>A
*clefF4	*	*	*clefG2	*	*clefG2	*
*k[f#c#g#d#]	*	*	*k[f#c#g#d#]	*	*k[f#c#g#d#]	*
*E:	*	*	*E:	*	*E:	*
*M3/4	*	*	*M3/4	*	*M3/4	*
*MM160	*	*	*MM160	*	*MM160	*
=1	=1	=1	=1	=1	=1	=1
2.E\	.	.	4b\	.	8r	.
.	.	.	.	.	8ee\	.
.	.	.	2ee\	.	8gg#y\L	.
.	.	.	.	.	8bb\	.
.	.	.	.	.	8ee\	.
.	.	.	.	.	8gg#y\J	.
=2	=2	=2	=2	=2	=2	=2
2.D#y\	.	6	4b\	.	8ff#y\L	.
.	.	.	.	.	8b\	.
.	.	.	2ff#y\	.	(8dd#y\	.
.	.	.	.	.	8ff#y\	.
.	.	.	.	.	8bb\)	.
.	.	.	.	.	8ff#y\J	.
=3	=3	=3	=3	=3	=3	=3
2E\	.	.	4b\	.	8gg#y\L	.
.	.	.	.	.	8bb\	.
.	.	.	4.ee\	.	8gg#y\	.
.	.	.	.	.	8ee\	.
4G#y\	.	6	.	.	8b\	.
.	.	.	8dd#y\	.	8ee\J	.
=4	=4	=4	=4	=4	=4	=4
4A\	.	.	4cc#y\	.	8a/L	.
.	.	.	.	.	8ee/	.
4B\	.	6 4	4.b\	.	8g#y/	.
.	.	.	.	.	8ee/	.
4BB/	.	5 3	.	.	8f#y/	.
.	.	.	8a/	.	8dd#y/J	.
=5	=5	=5	=5	=5	=5	=5
4E\	.	.	8g#y/L	.	2e/	.
.	.	.	8ee/	.	.	.
4.G#y\	.	6	(8ee/	.	.	.
.	.	.	8g#y/	.	.	.
.	.	.	8e/)	.	4r	.
8A\	.	.	8ee/J	.	.	.
=6	=6	=6	=6	=6	=6	=6
4B\	.	.	2dd#y\	.	8r	.
.	.	.	.	.	8bb\	.
4.D#y\	.	6	.	.	(8bb\L	.
.	.	.	.	.	8dd#y\	.
.	.	.	4r	.	8b\)	.
8BB/	.	.	.	.	8aa\J	.
!!LO:LB:g=original
=7	=7	=7	=7	=7	=7	=7
4E\	.	.	8r	.	2gg#y\	.
.	.	.	8ee\	.	.	.
4.G#y\	.	6	(8ee/L	.	.	.
.	.	.	8g#y/	.	.	.
.	.	.	8e/)	.	4r	.
8G#y\	.	.	8ee/J	.	.	.
=8	=8	=8	=8	=8	=8	=8
2AA#X/	.	6 5	8ee\L	.	8r	.
.	.	.	8cc#y\	.	8ee\	.
.	.	.	(8cc#y\	.	(8ee\L	.
.	.	.	8a#X\	.	8cc#y\	.
4AA#y/	.	.	8f#y\)	.	8a#X\)	.
.	.	.	8cc#y\J	.	8ee\J	.
=9	=9	=9	=9	=9	=9	=9
8BB/L	.	5	4b\	.	8dd#y\L	.
8D#y/	.	.	.	.	8b\	.
8F#y/	.	.	8r	.	8dd#y\	.
8D#y/J	.	.	8b\L	.	8ff#y\J	.
4BB/	.	6	8dd#y\	.	[4gg#y\	.
.	.	.	8b\J	.	.	.
=10	=10	=10	=10	=10	=10	=10
8C#y\L	.	5	4.ee\	.	8gg#y\L]	.
8E\	.	.	.	.	8cc#y\	.
8G#y\	.	.	.	.	8ee\	.
8E\J	.	.	8cc#y\	.	8gg#y\J	.
4C#y/	.	6	8ee\L	.	[4aa\	.
.	.	.	8cc#y\J	.	.	.
=11	=11	=11	=11	=11	=11	=11
8D#y\L	.	5	4.ff#y\	.	8aa\L]	.
8F#y\	.	.	.	.	8dd#y\	.
8A\	.	.	.	.	8ff#y\	.
8F#y\J	.	.	8dd#y\	.	8aa\J	.
4D#y\	.	6	8ff#y\L	.	[4bb\	.
.	.	.	8dd#y\J	.	.	.
=12	=12	=12	=12	=12	=12	=12
8E\L	.	5	4.gg#y\	.	8bb\L]	.
8G#y\	.	.	.	.	8ee\	.
8B\	.	.	.	.	8gg#y\	.
8G#y\J	.	.	8ee\	.	8bb\J	.
4E\	.	6	8gg#y\L	.	[4ccc#y\	.
.	.	.	8ee\J	.	.	.
=13	=13	=13	=13	=13	=13	=13
8F#y\L	.	#	4.aa#X\	.	8ccc#y\L]	.
8A#X\	.	.	.	.	8ff#y\	.
8c#y\	.	.	.	.	8aa#X\	.
8A#X\	.	.	8ff#y\	.	8ccc#y\J	.
8F#y\	.	6	8aa#X\L	.	[4ddd#y\	.
8E\J	.	.	8ff#y\J	.	.	.
=14	=14	=14	=14	=14	=14	=14
4D#y\	.	6	4bb\	.	8ddd#y\L]	.
.	.	.	.	.	8ff#y\J	.
4E\	.	.	8gg#y\L	.	4bb\	.
.	.	.	8ee\	.	.	.
4F#y\	.	#	8cc#y\	.	4aa#X\	.
.	.	.	8ff#y\J	.	.	.
!!LO:PB:g=original
=15	=15	=15	=15	=15	=15	=15
2BB/	.	.	8dd#y\L	.	4bb\	.
.	.	.	8bb\	.	.	.
.	.	.	(8bb\	.	4r	.
.	.	.	8ff#y\	.	.	.
4r	.	.	8dd#y\)	.	4r	.
.	.	.	8ff#y\J	.	.	.
=16	=16	=16	=16	=16	=16	=16
2D#y\	.	6	2b\	.	8r	.
.	.	.	.	.	8bb\	.
.	.	.	.	.	(8bb\L	.
.	.	.	.	.	8ff#y\	.
4r	.	.	4r	.	8dd#y\)	.
.	.	.	.	.	8ff#y\J	.
=17	=17	=17	=17	=17	=17	=17
2E\	.	.	8r	.	2gg#y\	.
.	.	.	8ee\	.	.	.
.	.	.	(8ee\L	.	.	.
.	.	.	8b\	.	.	.
4r	.	.	8g#y\)	.	4r	.
.	.	.	8b\J	.	.	.
=18	=18	=18	=18	=18	=18	=18
2G#y\	.	6	2e/	.	8r	.
.	.	.	.	.	8ee\	.
.	.	.	.	.	(8ee\L	.
.	.	.	.	.	8b\	.
4r	.	.	4r	.	8g#y\)	.
.	.	.	.	.	8b\J	.
=19	=19	=19	=19	=19	=19	=19
4A\	.	.	8r	.	2cc#y\	.
.	.	.	8aa\	.	.	.
2AA/	.	.	(8aa\L	.	.	.
.	.	.	8ee\	.	.	.
.	.	.	8cc#y\)	.	4aa\	.
.	.	.	8ee\J	.	.	.
=20	=20	=20	=20	=20	=20	=20
4.BB/	.	.	8dd#y\L	.	4.ff#y\	.
.	.	.	8cc#y\J	.	.	.
.	.	.	4.b\	.	.	.
8B\	.	.	.	.	8dd#y\	.
8G#y/L	.	6	.	.	8ee\L	.
8GG#y/J	.	.	8ee\	.	8b\J	.
=21	=21	=21	=21	=21	=21	=21
4.AA/	.	.	8ee\L	.	4.cc#y\	.
.	.	.	8dd#y\J	.	.	.
.	.	.	4.cc#y\	.	.	.
8c#y\	.	.	.	.	8ee\	.
8A\L	.	6	.	.	8ff#y\L	.
8AA\J	.	.	8ff#y\	.	8cc#y\J	.
=22	=22	=22	=22	=22	=22	=22
4.BB/	.	.	8ff#y\L	.	4.dd#y\	.
.	.	.	8ee\J	.	.	.
.	.	.	4.dd#y\	.	.	.
8d#y\	.	.	.	.	8ff#y\	.
8B\L	.	6	.	.	8gg#y\L	.
8BB\J	.	.	8gg#y\	.	8dd#y\J	.
!!LO:LB:g=original
=23	=23	=23	=23	=23	=23	=23
4.C#y/	.	.	8gg#y\L	.	4.ee\	.
.	.	.	8ff#y\J	.	.	.
.	.	.	4.ee\	.	.	.
8e\	.	.	.	.	8gg#y\	.
8c#y\L	.	6	.	.	8aa\L	.
8C#y\J	.	.	8aa\	.	8ee\J	.
=24	=24	=24	=24	=24	=24	=24
4.D#y\	.	.	8aa\L	.	4.ff#y\	.
.	.	.	8gg#y\J	.	.	.
.	.	.	4.ff#y\	.	.	.
8f#y\	.	.	.	.	8aa\	.
8d#y\L	.	6	.	.	8bb\L	.
8D#y\J	.	.	8ff#y\	.	8ff#y\J	.
=25	=25	=25	=25	=25	=25	=25
4E\	.	.	4b\	.	8gg#y\L	.
.	.	.	.	.	8ccc#y\	.
[2e\	.	6	4r	.	8gg#y\	.
.	.	.	.	.	8ee\J	.
.	.	.	8r	.	4ccc#y\	.
.	.	.	8gg#y\	.	.	.
=26	=26	=26	=26	=26	=26	=26
4e\]	.	4 2	4ff#y\	.	8r	.
.	.	.	.	.	8bb\L	.
[2d#y\	.	6	4bb\	.	8ff#y\	.
.	.	.	.	.	8dd#y\J	.
.	.	.	8r	.	4bb\	.
.	.	.	8ff#y\	.	.	.
=27	=27	=27	=27	=27	=27	=27
4d#y\]	.	4 2	4ee\	.	8r	.
.	.	.	.	.	8aa\L	.
[2c#y\	.	6	4aa\	.	8ee\	.
.	.	.	.	.	8cc#y\J	.
.	.	.	8r	.	4aa\	.
.	.	.	8ee\	.	.	.
=28	=28	=28	=28	=28	=28	=28
4c#y\]	.	4 2	4dd#y\	.	8r	.
.	.	.	.	.	8gg#y\L	.
[2B\	.	6	4gg#y\	.	8dd#y\	.
.	.	.	.	.	8b\J	.
.	.	.	8r	.	4gg#y\	.
.	.	.	8dd#y\	.	.	.
=29	=29	=29	=29	=29	=29	=29
4B\]	.	4 2	4cc#y\	.	8r	.
.	.	.	.	.	8ff#y\L	.
2A\	.	6	4ff#y\	.	8cc#y\	.
.	.	.	.	.	8a\J	.
.	.	.	8r	.	4ff#y\	.
.	.	.	8cc#y\	.	.	.
=30	=30	=30	=30	=30	=30	=30
4B\	.	.	4f#y/	.	8dd#y/L	.
.	.	.	.	.	8b/	.
4A\	.	7 5	4r	.	8ee/	.
.	.	.	.	.	8g#y/	.
4B\	.	.	4f#y/	.	8B/	.
.	.	.	.	.	8dd#y/J	.
!!LO:LB:g=original
=31	=31	=31	=31	=31	=31	=31
2E\	.	.	8g#y/L	.	2e/	.
.	.	.	8ee/	.	.	.
.	.	.	(8ee/	.	.	.
.	.	.	8b/	.	.	.
4r	.	.	8e/)	.	4r	.
.	.	.	8b/J	.	.	.
=32	=32	=32	=32	=32	=32	=32
4E\	p	.	4e/	.	8r	.
.	.	.	.	.	8ccc#y\L	p
[2e\	.	.	4r	.	8gg#y\	.
.	.	.	.	.	8ee\J	.
.	.	.	8r	.	4ccc#y\	.
.	.	.	8gg#y\	p	.	.
=33	=33	=33	=33	=33	=33	=33
4e\]	.	4 2	4ff#y\	.	8r	.
.	.	.	.	.	8bb\L	.
[2d#y\	.	6	4bb\	.	8ff#y\	.
.	.	.	.	.	8dd#y\J	.
.	.	.	8r	.	4bb\	.
.	.	.	8ff#y\	.	.	.
=34	=34	=34	=34	=34	=34	=34
4d#y\]	.	4 2	4ee\	.	8r	.
.	.	.	.	.	8aa\L	.
4c#y\	.	6	4aa\	.	8ee\	.
.	.	.	.	.	8cc#y\J	.
4C#y/	f	.	8r	.	4aa\	f
.	.	.	8ee\	f	.	.
=35||	=35||	=35||	=35||	=35||	=35||	=35||
*>B	*>B	*>B	*>B	*>B	*>B	*>B
!!!OMD: Adagio
*M3/2	*	*	*M3/2	*	*M3/2	*
*MM92	*	*	*MM92	*	*MM92	*
1.BB;	.	7	1.dd#y;	.	1.aa;	.
=36	=36	=36	=36	=36	=36	=36
2E\	.	.	2b\	.	2gg#y\	.
2.E\	.	.	2.b\	.	2.gg#y\	.
4E\	.	.	4b\	.	4gg#y\	.
=37	=37	=37	=37	=37	=37	=37
2E\	.	4#| 2	1.ff#y	.	2aa#X\	.
1D#y	.	6	.	.	[1bb	.
=38	=38	=38	=38	=38	=38	=38
1.C#y	.	7	1.ee	.	2bb\]	.
.	.	6#/	.	.	1aa#X	.
=39	=39	=39	=39	=39	=39	=39
2BB/	.	.	1dd#y	.	2bb\	.
4B\	.	.	.	.	2b\	.
4A\	.	.	.	.	.	.
2G#y\	.	6	[2ee\	.	2bb\	.
=40	=40	=40	=40	=40	=40	=40
1.F#y	.	7	2ee\]	.	1.aan	.
.	.	6	1dd#y	.	.	.
=41	=41	=41	=41	=41	=41	=41
1.E;	.	.	1.ee;	.	1.gg#y;	.
==	==	==	==	==	==	==
*-	*-	*-	*-	*-	*-	*-
!!!SMS: RV 66 / Estienne Roger (No. 363), Amsterdam [facs.]
!!!ENC: Fran Bennion   rev. 05/12/21 E Correia
!!!END: 2004/10/02
!!!ONB: Converted from MuseData with musedata2hum on Sat May 11 12:01:54 2024
!!!YEM: (C) 2004, 2019 Center for Computer Assisted Research in the Humanities
!!!system-decoration: [(s1,s2,s3)]
!!!URL-info: https://wiki.ccarh.org/wiki/MuseData:_Antonio_Vivaldi#Op._1:_Suonate_da_camera_a_tr.C3.A8.2C_due_violini_e_violone_o_cembalo Information about Vivaldi Op. 1 on the CCARH wiki
!!!URL-pdf: https://pdf.musedata.org/vivaldi-op01-no04.pdf#page=1 MuseData edition
!!!URL-pdf: https://s9.imslp.org/files/imglnks/usimg/1/18/IMSLP280399-PMLP10351-Vivaldi_Sonatas_Op_1_-_Violino_Primo.pdf#page=7 Violino primo part, Amsterdam: Estienne Roger, n.d.(ca.1723). Plate 363.
!!!URL-pdf: https://s9.imslp.org/files/imglnks/usimg/d/d5/IMSLP280400-PMLP10351-Vivaldi_Sonatas_Op_1_-_Violino_Secondo.pdf#page=6 Violino secondo part, Amsterdam: Estienne Roger, n.d.(ca.1723). Plate 363.
!!!URL-pdf: https://s9.imslp.org/files/imglnks/usimg/8/89/IMSLP280401-PMLP10351-Vivaldi_Sonatas_Op_1_-_Organo_e_Violoncello.pdf#page=6 Organo e Violoncello parts, Amsterdam: Estienne Roger, n.d.(ca.1723). Plate 363.
!!!URL-youtube: https://www.youtube.com/watch?v=P5HHPe_W6Uo&t=3929s L'Arte dell'Arco
!!!title: @{OTL}, mov. @{OMV}
!!!filter-vcross: vcross
!!!EEV: 2024/05/11
!!!source-file: https://bitbucket.org/musedata/vivaldi/src/master/roger/op1/no04/stage2/02/01
!!!source-file: https://bitbucket.org/musedata/vivaldi/src/master/roger/op1/no04/stage2/02/02
!!!source-file: https://bitbucket.org/musedata/vivaldi/src/master/roger/op1/no04/stage2/02/03
!!!source-file: https://bitbucket.org/musedata/vivaldi/src/master/roger/op1/no04/stage2/02/04
